X: 2309
T: RED RED ROSE
R: Scotch Jig.
%R: jig
B: James Kerr "Merry Melodies" v.2 p.34 #309
Z: 2016 John Chambers <jc:trillian.mit.edu>
M: 6/8
L: 1/8
K: D
uA |\
DED uE2uF | vd2vc uB2uA | B2A B2d | e3 def |\
DED E2F | d2c B2A | B2A B2c | d3- d2 :|
|: uA |\
vd2vf ue2ud | Bcd A2F | A2A g2f | f3 eag |\
f2a f2d | Bcd AGF | A2A B2c | d3- d2 :|
